X: 45
M: C
L: 1/8
K: G
(ge) | d2 B2 B2 (AG) | e2 A2 A2 (ge) |
d2 B2 (cB) (AG) | D2 G2 G2 (ge) |
d2 B2 {c}B2 (AG) | e2 A2 A2 (G>A) |
g2 g2 {g}b2 (ag) | e2 a2 a2 (ge) |
(de) (ga) {g}b2 (ag) | d2 g2 g2 d2 |
c2 (ec) B2 (dB) | E2 A2 A2 (ge) |
(ed) (Be) (dB) (AG) | D2 G2 G2 |]

